svg/Filled/enter_filled.svg

<svg viewBox="0 0 24 24" xmlns="http://www.w3.org/2000/svg" width="24" height="24"><path d="M8.8 3.37c1.86 0 2.79 0 3.52.3a4 4 0 0 1 2.17 2.17c.3.73.3 1.66.3 3.53v1.73H9.34a.9.9 0 0 0 0 1.8h5.45v1.73c0 1.87 0 2.8-.3 3.53a4 4 0 0 1-2.17 2.17c-.73.3-1.66.3-3.53.3s-2.8 0-3.53-.3a4 4 0 0 1-2.16-2.17c-.3-.73-.3-1.66-.3-3.53V9.37c0-1.87 0-2.8.3-3.53a4 4 0 0 1 2.16-2.17c.74-.3 1.67-.3 3.53-.3m9.38 4.7a.9.9 0 0 1 1.2-.07l.07.07 3.3 3.3a.9.9 0 0 1 0 1.27l-3.3 3.3a.9.9 0 0 1-1.27-1.28l1.76-1.76H14.8v-1.8h5.15l-1.76-1.76-.06-.07a.9.9 0 0 1 .06-1.2"/></svg>

<svg viewBox="0 0 24 24" xmlns="http://www.w3.org/2000/svg" width="24" height="24"><path d="M8.8 3.37c1.86 0 2.79 0 3.52.3a4 4 0 0 1 2.17 2.17c.3.73.3 1.66.3 3.53v1.73H9.34a.9.9 0 0 0 0 1.8h5.45v1.73c0 1.87 0 2.8-.3 3.53a4 4 0 0 1-2.17 2.17c-.73.3-1.66.3-3.53.3s-2.8 0-3.53-.3a4 4 0 0 1-2.16-2.17c-.3-.73-.3-1.66-.3-3.53V9.37c0-1.87 0-2.8.3-3.53a4 4 0 0 1 2.16-2.17c.74-.3 1.67-.3 3.53-.3M18.17 8.07A.9 .9 0 0 1 19.37 8L22.74 11.37A.9 .9 0 0 1 22.74 12.64L19.44 15.94A.9 .9 0 0 1 18.17 14.66L19.93 12.9L14.8 12.9L14.8 11.1L19.95 11.1L18.13 9.27A.9 .9 0 0 1 18.19 8.07"/></svg>
